src/amo/components/Icon/img/artist.svg

<svg xmlns="http://www.w3.org/2000/svg" width="16" height="16"><path fill="#111" d="M4 9.6A2.397 2.397 0 0 0 1.6 12c0 1.048-.928 1.6-1.6 1.6.736.976 1.992 1.6 3.2 1.6A3.2 3.2 0 0 0 6.4 12c0-1.328-1.072-2.4-2.4-2.4Zm10.968-7.496-1.072-1.072a.797.797 0 0 0-1.128 0L5.6 8.2l2.2 2.2 7.168-7.168a.797.797 0 0 0 0-1.128Z"/></svg>

<svg xmlns="http://www.w3.org/2000/svg" width="16" height="16" viewBox="0 0 16 16">
  <path fill="#111" d="M4,9.6 C2.672,9.6 1.6,10.672 1.6,12 C1.6,13.048 0.672,13.6 0,13.6 C0.736,14.576 1.992,15.2 3.2,15.2 C4.968,15.2 6.4,13.768 6.4,12 C6.4,10.672 5.328,9.6 4,9.6 Z M14.968,2.104 L13.896,1.032 C13.584,0.72 13.08,0.72 12.768,1.032 L5.6,8.2 L7.8,10.4 L14.968,3.232 C15.28,2.92 15.28,2.416 14.968,2.104 Z"/>
</svg>
